icons/svg/key.svg

<svg xmlns="http://www.w3.org/2000/svg" version="1.1" baseProfile="full" width="24" height="24" viewBox="0 0 24.00 24.00" xml:space="preserve"><path fill="#000" fill-opacity="1" stroke-linejoin="round" d="M7 14c-1.1 0-2-.9-2-2s.9-2 2-2 2 .9 2 2-.9 2-2 2zm5.65-4C11.83 7.67 9.61 6 7 6c-3.31 0-6 2.69-6 6s2.69 6 6 6c2.61 0 4.83-1.67 5.65-4H17v4h4v-4h2v-4H12.65z"/></svg>

﻿<?xml version="1.0" encoding="utf-8"?>
<!DOCTYPE svg PUBLIC "-//W3C//DTD SVG 1.1//EN" "http://www.w3.org/Graphics/SVG/1.1/DTD/svg11.dtd">
<svg xmlns="http://www.w3.org/2000/svg" xmlns:xlink="http://www.w3.org/1999/xlink" version="1.1" baseProfile="full" width="24" height="24" viewBox="0 0 24.00 24.00" enable-background="new 0 0 24.00 24.00" xml:space="preserve">
	<path fill="#000000" fill-opacity="1" stroke-linejoin="round" d="M 7,14C 5.9,14 5,13.1 5,12C 5,10.9 5.9,10 7,10C 8.1,10 9,10.9 9,12C 9,13.1 8.1,14 7,14 Z M 12.65,10C 11.83,7.67 9.61,6 7,6C 3.69,6 1,8.69 1,12C 1,15.31 3.69,18 7,18C 9.61,18 11.83,16.33 12.65,14L 17,14L 17,18L 21,18L 21,14L 23,14L 23,10L 12.65,10 Z "/>
</svg>
